!! Isochronous pitch passage.
!! Treble-line.
!! From Fitzwilliam Virginal Book Vol. 1, No. 40, Orlando Gibbons, The woods so wild, measure 87ff.
!! Keyboard
!! 3/4 meter
**kern	**metpos
*M3/4	*M3/4
*tb16	*tb16
=1	=1
16f	1
16g	4
16a	3
16b-	4
16cc	2
16a	4
16b-	3
16cc	4
16dd	2
16cc	4
16dd	3
16ee	4
=2	=2
16ff	1
16cc	4
16dd	3
16ee	4
16ff	2
16cc	4
16dd	3
16ee	4
16ff	2
16f	4
16a	3
16b-	4
=3	=3
16cc	1
16dd	4
16cc	3
16b-	4
16a	2
16b-	4
16a	3
16g	4
16f	2
16dd	4
16cc	3
16b-	4
=4	=4
16a	1
16ff	4
16ee	3
16dd	4
16cc	2
16b-	4
16a	3
16ff	4
16ee	2
16dd	4
16cc	3
16a	4
=5	=5
16bn	1
16cc	4
16dd	3
16a	4
16g	2
16cc	4
16ff	3
16a	4
16ee	2
16g	4
16dd	3
16f	4
=6	=6
16gg	1
16cc	4
16ff	3
16b-	4
16ee	2
16b-	4
16a	3
16dd	4
16g	2
16cc	4
16f	3
16b-	4
=7	=7
16b-	1
16e	4
16a	3
16d	4
16gg	2
16cc	4
16ff	3
16bn	4
16ee	2
16gg	4
16dd	3
16ff	4
=8	=8
16ee	1
16gg	4
16b	3
16ff	4
16ee	2
16g	4
16dd	3
16f	4
16e	2
16cc	4
16d	3
16b-	4
=9	=9
16a	1
16d	4
16a	3
16c	4
16a	2
16f	4
16a	3
16e	4
16a	2
16d	4
16a	3
16c	4
=10	=10
16a	1
16f	4
16a	3
16e	4
16a	2
16d	4
16a	3
16c	4
16a	2
16f	4
16a	3
16e	4
=11	=11
16aa	1
16dd	4
16aa	3
16cc	4
16aa	2
16ff	4
16aa	3
16ee	4
16aa	2
16dd	4
16aa	3
16cc	4
=12	=12
16aa	1
16ff	4
16aa	3
16ee	4
16aa	2
16dd	4
16aa	3
16cc	4
16aa	2
16dd	4
16aa	3
16cc	4
=13	=13
16gg	1
16b-	4
16gg	3
16cc	4
16gg	2
16b-	4
16aa	3
16dd	4
16gg	2
16cc	4
16ff	3
16bn	4
=14	=14
16ee	1
16g	4
16ff	3
16a	4
16gg	2
16bn	4
16ee	3
16g	4
16dd	2
16g	4
16cc	3
16f#	4
=15	=15
16b	1
16d	4
16cc	3
16e	4
16dd	2
16f	4
16ee	3
16g	4
16dd	2
16g	4
16cc	3
16f#	4
=16	=16
*-	*-
